X:5
%%scale 0.7
%%newpage 1
T:Fantasy \`a 5 (VdGS Anon No.1607)
C:Anon 
L:1/4
M:4/2
P:Tenor II
%%measurenb 0
%%squarebreve
K:C clef=alto
z2 E2 D4 | C4 D2 E A, | A,2 A2 A3 E | F2 G F E4 |
z A, A, A, ^C D2 C | D4 A4 | z A A2 A4 | G6 F2-| F E D2 E4 | 
A A/A/ A A, C D A, A | F G A2 z4 |z4 z A, A, ^G, |A, G,/F,/ E,/D,/ E, D,2 D2-|
D C D2 E F2 E | F2 z2 z D A, A | ^F G A2 G E E2 | E4 z4 | Z7 |
A,3 B, ^C2 D2-|D F E4 A2-|A2 ^G2 A4 | z2 A2 F2 D2 | E4 z2 E2-|
E2 F2 E4 | D3 C B,2 E2-| E B, C A, E3 B, | ^D2 E4 D2 | E8 | 
C2 A,2 G, D, F,2 | E,8 | A,4 E4 |A,3 B, C2 B,2 | A,8 | D8 |
z4 z2 E2-|E B, C2 B,4 | A,8 | D,2 D4 ^C2 |D2 D E F E/D/ E ^F |
G E F G A G/F/ G2-|G2 F2 E4 | z2 A, B, C B,/A,/ B, ^C |D2 C2 z4 | z4 E F G F/E/ |
D E F3 G E2 | D A, B, ^C D3 G, | A, B, C2 F,3 G, | A,4 D,2 D C | B, A, G,2 C2 B, A, |
G, F, E, D, E,2 A,2 | D,2 z D E F G2-|G D F E2 D D2-|D2 ^C2 D4 | z8 |
z2 D2 A3 G | F2 D4 C2 |[M:6/2] _B,2 G,4 D4 ^C2 | [M:4/2]D8 |]

